libs/icons/src/svg/course.svg

<svg width="16" height="16" viewBox="0 0 16 16" fill="none" xmlns="http://www.w3.org/2000/svg">
<g clip-path="url(#clip0_3_3352)">
<path fill-rule="evenodd" clip-rule="evenodd" d="M0.666667 0.666664C0.298477 0.666664 0 0.965141 0 1.33333V4V14.6667C0 15.0349 0.298477 15.3333 0.666667 15.3333H15.3333C15.7015 15.3333 16 15.0349 16 14.6667V4V1.33333C16 0.965141 15.7015 0.666664 15.3333 0.666664H3.99996H0.666667ZM3.33329 2H1.33333V3.33333H3.33329V2ZM4.66663 3.33333V2H14.6667V3.33333H4.66663ZM1.33333 4.66666H14.6667V14H1.33333V4.66666ZM2.66671 7.33333C2.66671 6.96514 2.96518 6.66666 3.33337 6.66666H7.33337C7.70156 6.66666 8.00004 6.96514 8.00004 7.33333V11.3333C8.00004 11.7015 7.70156 12 7.33337 12H3.33337C2.96518 12 2.66671 11.7015 2.66671 11.3333V7.33333ZM4.00004 8V10.6667H6.66671V8H4.00004ZM9.99996 6.66666C9.63177 6.66666 9.33329 6.96514 9.33329 7.33333C9.33329 7.70152 9.63177 8 9.99996 8H12.6666C13.0348 8 13.3333 7.70152 13.3333 7.33333C13.3333 6.96514 13.0348 6.66666 12.6666 6.66666H9.99996ZM9.33329 10C9.33329 9.63181 9.63177 9.33333 9.99996 9.33333H11.3333C11.7015 9.33333 12 9.63181 12 10C12 10.3682 11.7015 10.6667 11.3333 10.6667H9.99996C9.63177 10.6667 9.33329 10.3682 9.33329 10Z" fill="#202327"/>
</g>
<defs>
<clipPath id="clip0_3_3352">
<rect width="16" height="16" fill="white"/>
</clipPath>
</defs>
</svg>

<svg xmlns="http://www.w3.org/2000/svg" viewBox="0 0 16 16" class="sageicon"><path fill-rule="evenodd" d="M.667.667A.667.667 0 0 0 0 1.333v13.334c0 .368.298.666.667.666h14.666a.667.667 0 0 0 .667-.666V1.333a.667.667 0 0 0-.667-.666H.667ZM3.333 2h-2v1.333h2V2Zm1.334 1.333V2h10v1.333h-10ZM1.333 4.667h13.334V14H1.333V4.667Zm1.334 2.666c0-.368.298-.666.666-.666h4c.369 0 .667.298.667.666v4a.667.667 0 0 1-.667.667h-4a.667.667 0 0 1-.666-.667v-4ZM4 8v2.667h2.667V8H4Zm6-1.333A.667.667 0 0 0 10 8h2.667a.667.667 0 1 0 0-1.333H10ZM9.333 10c0-.368.299-.667.667-.667h1.333a.667.667 0 1 1 0 1.334H10A.667.667 0 0 1 9.333 10Z"/></svg>
